packages/icons/raw/imported/FilesFolderZip.svg

<svg width="32" height="32" viewBox="0 0 32 32" fill="none" xmlns="http://www.w3.org/2000/svg">
<path d="M19.5 11C19.5 10.7239 19.2761 10.5 19 10.5C18.7238 10.5 18.5 10.7239 18.5 11H19.5ZM18.5 11.7368C18.5 12.013 18.7238 12.2368 19 12.2368C19.2761 12.2368 19.5 12.013 19.5 11.7368H18.5ZM20.9735 13.2104C20.9735 12.9343 20.7497 12.7104 20.4735 12.7104C20.1974 12.7104 19.9735 12.9343 19.9735 13.2104H20.9735ZM19.9735 13.9473C19.9735 14.2234 20.1974 14.4473 20.4735 14.4473C20.7497 14.4473 20.9735 14.2234 20.9735 13.9473H19.9735ZM19.5 15.421C19.5 15.1449 19.2761 14.921 19 14.921C18.7238 14.921 18.5 15.1449 18.5 15.421H19.5ZM18.5 16.1579C18.5 16.434 18.7238 16.6579 19 16.6579C19.2761 16.6579 19.5 16.434 19.5 16.1579H18.5ZM20.9735 17.6316C20.9735 17.3555 20.7497 17.1316 20.4735 17.1316C20.1974 17.1316 19.9735 17.3555 19.9735 17.6316H20.9735ZM19.9735 18.3684C19.9735 18.6446 20.1974 18.8684 20.4735 18.8684C20.7497 18.8684 20.9735 18.6446 20.9735 18.3684H19.9735ZM19.5 19.842C19.5 19.5659 19.2761 19.342 19 19.342C18.7238 19.342 18.5 19.5659 18.5 19.842H19.5ZM18.5 20.5789C18.5 20.855 18.7238 21.0789 19 21.0789C19.2761 21.0789 19.5 20.855 19.5 20.5789H18.5ZM20.9735 22.0526C20.9735 21.7765 20.7497 21.5526 20.4735 21.5526C20.1974 21.5526 19.9735 21.7765 19.9735 22.0526H20.9735ZM19.9735 22.7895C19.9735 23.0656 20.1974 23.2895 20.4735 23.2895C20.7497 23.2895 20.9735 23.0656 20.9735 22.7895H19.9735ZM19.5 24.2632C19.5 23.987 19.2761 23.7632 19 23.7632C18.7238 23.7632 18.5 23.987 18.5 24.2632H19.5ZM18.5 25C18.5 25.2762 18.7238 25.5 19 25.5C19.2761 25.5 19.5 25.2762 19.5 25H18.5ZM6.5 9.5H7H6.5ZM6.5 22.5H6H6.5ZM22.5 25.5V25V25.5ZM9.49999 25.5V26V25.5ZM25.5 13.1538H25H25.5ZM25.5 22.5H26H25.5ZM22.5 10.1538V10.6538V10.6538V10.1538ZM16.7308 10.1538L16.302 10.4111L16.4477 10.6538H16.7308V10.1538ZM14.5385 6.5L14.9672 6.24275L14.8215 6L14.5385 6V6.5ZM9.5 6.5V6V6.5ZM18.5 11V11.7368H19.5V11H18.5ZM19.9735 13.2104V13.9473H20.9735V13.2104H19.9735ZM18.5 15.421V16.1579H19.5V15.421H18.5ZM19.9735 17.6316V18.3684H20.9735V17.6316H19.9735ZM18.5 19.842V20.5789H19.5V19.842H18.5ZM19.9735 22.0526V22.7895H20.9735V22.0526H19.9735ZM18.5 24.2632V25H19.5V24.2632H18.5ZM6 9.5L6 22.5H7L7 9.5H6ZM22.5 25L9.49999 25V26L22.5 26V25ZM25 13.1538V22.5H26V13.1538H25ZM22.5 9.65383H16.7308V10.6538H22.5V9.65383ZM17.1595 9.89659L14.9672 6.24275L14.1097 6.75725L16.302 10.4111L17.1595 9.89659ZM14.5385 6L9.5 6V7L14.5385 7V6ZM26 13.1538C26 11.2208 24.433 9.65383 22.5 9.65383V10.6538C23.8807 10.6538 25 11.7731 25 13.1538H26ZM7 9.5C7 8.11929 8.11929 7 9.5 7V6C7.567 6 6 7.567 6 9.5H7ZM6 22.5C6 24.433 7.567 26 9.49999 26V25C8.11928 25 7 23.8807 7 22.5H6ZM22.5 26C24.433 26 26 24.433 26 22.5H25C25 23.8807 23.8807 25 22.5 25V26Z" fill="black"/>
</svg>

<svg width="32" height="32" fill="none" xmlns="http://www.w3.org/2000/svg"><path d="M19.5 11a.5.5 0 0 0-1 0h1Zm-1 .737a.5.5 0 1 0 1 0h-1Zm2.474 1.473a.5.5 0 1 0-1 0h1Zm-1 .737a.5.5 0 0 0 1 0h-1Zm-.474 1.474a.5.5 0 0 0-1 0h1Zm-1 .737a.5.5 0 1 0 1 0h-1Zm2.474 1.474a.5.5 0 1 0-1 0h1Zm-1 .736a.5.5 0 1 0 1 0h-1Zm-.474 1.474a.5.5 0 0 0-1 0h1Zm-1 .737a.5.5 0 1 0 1 0h-1Zm2.474 1.474a.5.5 0 1 0-1 0h1Zm-1 .736a.5.5 0 0 0 1 0h-1Zm-.474 1.474a.5.5 0 1 0-1 0h1Zm-1 .737a.5.5 0 1 0 1 0h-1ZM6.5 9.5H7h-.5Zm0 13H6h.5Zm16 3V25v.5Zm-13 0v.5-.5Zm16-12.346H25h.5Zm0 9.346h.5-.5Zm-3-12.346v.5-.5Zm-5.77 0-.428.257.146.243h.283v-.5ZM14.54 6.5l.428-.257L14.821 6h-.282v.5ZM9.5 6.5V6v.5Zm9 4.5v.737h1V11h-1Zm1.474 2.21v.737h1v-.737h-1ZM18.5 15.421v.737h1v-.737h-1Zm1.474 2.21v.737h1v-.736h-1ZM18.5 19.843v.737h1v-.737h-1Zm1.474 2.21v.738h1v-.737h-1ZM18.5 24.264V25h1v-.737h-1ZM6 9.5v13h1v-13H6ZM22.5 25h-13v1h13v-1ZM25 13.154V22.5h1v-9.346h-1Zm-2.5-3.5h-5.77v1h5.77v-1Zm-5.34.243-2.193-3.654-.857.514 2.192 3.654.858-.514ZM14.539 6H9.5v1h5.039V6ZM26 13.154a3.5 3.5 0 0 0-3.5-3.5v1a2.5 2.5 0 0 1 2.5 2.5h1ZM7 9.5A2.5 2.5 0 0 1 9.5 7V6A3.5 3.5 0 0 0 6 9.5h1Zm-1 13A3.5 3.5 0 0 0 9.5 26v-1A2.5 2.5 0 0 1 7 22.5H6ZM22.5 26a3.5 3.5 0 0 0 3.5-3.5h-1a2.5 2.5 0 0 1-2.5 2.5v1Z" fill="#000"/></svg>
